src/assets/lens-light.svg

<svg fill="none" height="80" viewBox="0 0 80 80" width="80" xmlns="http://www.w3.org/2000/svg"><circle cx="40" cy="40" fill="#abfe2c" r="40"/><path d="m63.4875 58.25-.5125.2375c-3.075 1.4125-6.6 1.7875-9.9125 1.0375-1.7875-.4-3.45-1.1-4.9625-2.0625 3 .7875 6.275.4125 9.0375-1.05.125-.0625.2625-.1375.3875-.2125l.5375-.3-1.5-2.6375-.5375.3125c-.1.0625-.2.1125-.3.1625-2.9875 1.575-6.5125 1.4625-9.425-.2875-2.5875-1.55-4.2625-4.1125-4.675-7.025 3.5625-.325 12.3-1.85 19.3125-8.8625.1875-.1875.375-.375.55-.5625 1.9375-2.05 2.8625-4.4875 2.6625-7.0625-.175-2.2625-1.2125-4.45-2.9125-6.15s-3.9-2.75-6.15-2.9125c-2.0125-.1625-3.9875.3875-5.725 1.575-.3875-2.075-1.3875-3.8375-2.925-5.1625-1.725-1.475-4-2.2875-6.4125-2.2875s-4.7.8125-6.4125 2.2875c-1.5375 1.325-2.5375 3.0875-2.925 5.1625-1.7375-1.1875-3.7-1.7375-5.725-1.575-2.2625.175-4.45 1.2125-6.15 2.9125-1.7125 1.7125-2.75 3.9-2.9125 6.15-.2 2.575.725 5.0125 2.6625 7.0625.175.1875.3625.375.55.5625 7.0125 7.0125 15.7375 8.5375 19.3125 8.8625-.4125 2.9125-2.1 5.475-4.675 7.025-2.925 1.7625-6.45 1.8625-9.425.2875-.1-.05-.2-.1125-.3-.1625l-.5375-.3125-1.5 2.6375.5375.3c.125.075.2625.15.3875.2125 2.775 1.4625 6.05 1.8375 9.0375 1.05-1.5.9625-3.175 1.6625-4.9625 2.0625-3.3125.75-6.8375.375-9.9125-1.0375l-.5125-.2375-1.5625 2.625.6125.2875c3.675 1.725 8 2.2 12 1.3125 4.15-.9375 7.75-3.1875 10.4125-6.5125.1625-.2.3125-.4125.475-.6125v7.5875h3.025v-7.6125c.1625.2125.3125.4375.4875.6375 2.6625 3.325 6.2625 5.575 10.4125 6.5125 1.3375.3 2.7125.45 4.0875.45 2.7375 0 5.4625-.6125 7.9125-1.7625l.575-.2875zm-29.9875-32.7875c0-.175-.0125-.35-.0125-.5375 0-.2375 0-.475.0125-.7.1125-4.275 3.45-6.225 6.5-6.225s6.3875 1.95 6.5 6.225c.0125.2375.0125.475.0125.7 0 .1875 0 .3625-.0125.55l-.1125 4.075 2.8375-3c.1125-.125.225-.2375.35-.3625.1625-.1625.3375-.325.5-.4875 3.1-2.9375 6.8375-1.9625 9 .2s3.1375 5.8875.2 9c-.1625.175-.325.3375-.4875.5-7.9125 7.9375-18.6875 8.075-18.7875 8.075-.1125 0-10.8625-.1375-18.7875-8.0625-.1625-.1625-.325-.3375-.4875-.5-2.9375-3.1125-1.9625-6.8375.2-9 1.3-1.3 3.0125-2.05 4.6875-2.05 1.5625 0 3.0125.625 4.3125 1.85.175.1625.3375.325.5.4875.125.1375.25.2625.3875.4l2.8125 2.9625z" fill="#00501e"/></svg>

<svg width="80" height="80" viewBox="0 0 80 80" fill="none" xmlns="http://www.w3.org/2000/svg">
    <circle cx="40" cy="40" r="40" fill="#ABFE2C" />
    <path
        d="M63.4875 58.25L62.975 58.4875C59.9 59.9 56.375 60.275 53.0625 59.525C51.275 59.125 49.6125 58.425 48.1 57.4625C51.1 58.25 54.375 57.875 57.1375 56.4125C57.2625 56.35 57.4 56.275 57.525 56.2L58.0625 55.9L56.5625 53.2625L56.025 53.575C55.925 53.6375 55.825 53.6875 55.725 53.7375C52.7375 55.3125 49.2125 55.2 46.3 53.45C43.7125 51.9 42.0375 49.3375 41.625 46.425C45.1875 46.1 53.925 44.575 60.9375 37.5625C61.125 37.375 61.3125 37.1875 61.4875 37C63.425 34.95 64.35 32.5125 64.15 29.9375C63.975 27.675 62.9375 25.4875 61.2375 23.7875C59.5375 22.0875 57.3375 21.0375 55.0875 20.875C53.075 20.7125 51.1 21.2625 49.3625 22.45C48.975 20.375 47.975 18.6125 46.4375 17.2875C44.7125 15.8125 42.4375 15 40.025 15C37.6125 15 35.325 15.8125 33.6125 17.2875C32.075 18.6125 31.075 20.375 30.6875 22.45C28.95 21.2625 26.9875 20.7125 24.9625 20.875C22.7 21.05 20.5125 22.0875 18.8125 23.7875C17.1 25.5 16.0625 27.6875 15.9 29.9375C15.7 32.5125 16.625 34.95 18.5625 37C18.7375 37.1875 18.925 37.375 19.1125 37.5625C26.125 44.575 34.85 46.1 38.425 46.425C38.0125 49.3375 36.325 51.9 33.75 53.45C30.825 55.2125 27.3 55.3125 24.325 53.7375C24.225 53.6875 24.125 53.625 24.025 53.575L23.4875 53.2625L21.9875 55.9L22.525 56.2C22.65 56.275 22.7875 56.35 22.9125 56.4125C25.6875 57.875 28.9625 58.25 31.95 57.4625C30.45 58.425 28.775 59.125 26.9875 59.525C23.675 60.275 20.15 59.9 17.075 58.4875L16.5625 58.25L15 60.875L15.6125 61.1625C19.2875 62.8875 23.6125 63.3625 27.6125 62.475C31.7625 61.5375 35.3625 59.2875 38.025 55.9625C38.1875 55.7625 38.3375 55.55 38.5 55.35V62.9375H41.525V55.325C41.6875 55.5375 41.8375 55.7625 42.0125 55.9625C44.675 59.2875 48.275 61.5375 52.425 62.475C53.7625 62.775 55.1375 62.925 56.5125 62.925C59.25 62.925 61.975 62.3125 64.425 61.1625L65 60.875L63.4875 58.25ZM33.5 25.4625C33.5 25.2875 33.4875 25.1125 33.4875 24.925C33.4875 24.6875 33.4875 24.45 33.5 24.225C33.6125 19.95 36.95 18 40 18C43.05 18 46.3875 19.95 46.5 24.225C46.5125 24.4625 46.5125 24.7 46.5125 24.925C46.5125 25.1125 46.5125 25.2875 46.5 25.475L46.3875 29.55L49.225 26.55C49.3375 26.425 49.45 26.3125 49.575 26.1875C49.7375 26.025 49.9125 25.8625 50.075 25.7C53.175 22.7625 56.9125 23.7375 59.075 25.9C61.2375 28.0625 62.2125 31.7875 59.275 34.9C59.1125 35.075 58.95 35.2375 58.7875 35.4C50.875 43.3375 40.1 43.475 40 43.475C39.8875 43.475 29.1375 43.3375 21.2125 35.4125C21.05 35.25 20.8875 35.075 20.725 34.9125C17.7875 31.8 18.7625 28.075 20.925 25.9125C22.225 24.6125 23.9375 23.8625 25.6125 23.8625C27.175 23.8625 28.625 24.4875 29.925 25.7125C30.1 25.875 30.2625 26.0375 30.425 26.2C30.55 26.3375 30.675 26.4625 30.8125 26.6L33.625 29.5625L33.5 25.4625Z"
        fill="#00501E" />
</svg>
